Origami/16x16/apps/babe.svg

<svg width="16" height="16" version="1" xmlns="http://www.w3.org/2000/svg">
 <path d="M 5,1 C 4.1423552,1.0012706 3.3262541,1.3695114 2.7578125,2.0117188 1.2007749,2.1379729 0.00114742,3.4378525 0,5 v 5 c 0.00106425,1.561456 1.1995941,2.861066 2.7558594,2.988281 0.3680781,0.415099 0.8440416,0.720013 1.375,0.88086 C 4.5137335,15.133687 5.6787625,15.998933 7,16 h 1 c 1.3212377,-0.0011 2.486267,-0.866313 2.869141,-2.130859 0.530253,-0.161172 1.005504,-0.466063 1.373047,-0.88086 C 13.799225,12.862027 14.998852,11.562147 15,10 V 5 C 14.998936,3.4385443 13.800406,2.1389337 12.244141,2.0117188 11.675248,1.3690022 10.858326,1.0007122 10,1 H 9 C 8.4729985,1.0013289 7.9556437,1.1414458 7.5,1.40625 7.0443563,1.1414458 6.5270015,1.0013289 6,1 Z" style="fill:#f85b79"/>
 <path d="m5 4v1h1v-1zm4 0v1h1v-1zm-6 1v1h1v-1zm8 0v1h1v-1zm-6 1v1h1v-1zm2 0v1h1v-1zm2 0v1h1v-1zm-6 1v1h1v-1zm8 0v1h1v-1zm-6 1v1h1v-1zm2 0v1h1v-1zm2 0v1h1v-1zm-6 1v1h1v-1zm8 0v1h1v-1zm-6 1v1h1v-1zm2 0v1h1v-1zm2 0v1h1v-1zm-2 2v1h1v-1z" style="fill:#ffffff"/>
</svg>

<svg xmlns="http://www.w3.org/2000/svg" width="16" height="16" version="1">
 <path style="fill:#f85b79" d="M 5,1 C 4.1423552,1.0012706 3.3262541,1.3695114 2.7578125,2.0117188 1.2007749,2.1379729 0.00114742,3.4378525 0,5 v 5 c 0.00106425,1.561456 1.1995941,2.861066 2.7558594,2.988281 0.3680781,0.415099 0.8440416,0.720013 1.375,0.88086 C 4.5137335,15.133687 5.6787625,15.998933 7,16 h 1 c 1.3212377,-0.0011 2.486267,-0.866313 2.869141,-2.130859 0.530253,-0.161172 1.005504,-0.466063 1.373047,-0.88086 C 13.799225,12.862027 14.998852,11.562147 15,10 V 5 C 14.998936,3.4385443 13.800406,2.1389337 12.244141,2.0117188 11.675248,1.3690022 10.858326,1.0007122 10,1 H 9 C 8.4729985,1.0013289 7.9556437,1.1414458 7.5,1.40625 7.0443563,1.1414458 6.5270015,1.0013289 6,1 Z"/>
 <path style="fill:#ffffff" d="M 5,4 V 5 H 6 V 4 Z m 4,0 v 1 h 1 V 4 Z M 3,5 V 6 H 4 V 5 Z m 8,0 v 1 h 1 V 5 Z M 5,6 V 7 H 6 V 6 Z M 7,6 V 7 H 8 V 6 Z m 2,0 v 1 h 1 V 6 Z M 3,7 V 8 H 4 V 7 Z m 8,0 v 1 h 1 V 7 Z M 5,8 V 9 H 6 V 8 Z M 7,8 V 9 H 8 V 8 Z m 2,0 v 1 h 1 V 8 Z M 3,9 v 1 H 4 V 9 Z m 8,0 v 1 h 1 V 9 Z m -6,1 v 1 h 1 v -1 z m 2,0 v 1 h 1 v -1 z m 2,0 v 1 h 1 v -1 z m -2,2 v 1 h 1 v -1 z"/>
</svg>
